X: 1
T: Feiar fr\aa Sandsv\aer
O: Norway
R: polka
Z: 2008 John Chambers <jc@trillian.mit.edu>
S: handwritten MS of unknown origin
M: 2/4
L: 1/16
K: D
|: "D"A2e2 f3e  | d2f2 a4   | "A7"A2c2 e3g  | "D"f2e2    d4 :|
|: "D"d2Ad f2df | a2ba gfed | "A7"c2Ac e2ef |    g2fe "D"d4 :|
